X:1
T:Title
%%score { ( 1 3 ) | ( 2 4 ) }
L:1/8
M:4/4
K:Eb
V:1 treble nm="Grand Piano"
V:3 treble 
V:2 bass 
V:4 bass 
V:1
 z4 z2[Q:1/4=100] G2 | G3 G F2 E2 | A4 G2 B2 | e3 e e2 =A2 |[M:3/4] [DB]6 |[M:1/4] [=Ec]2 | %6
[M:4/4] [Fc]3 [CFA] [B,DG]2 F2 | B4 A2 G2 | [Dd]2 [EGc]2 [D_GB]2 [CG=A]2 |[M:3/4] [B,GB]6 | %10
[M:1/4] [DAB]2 |[M:4/4] [EGB]3 [B,EG] [A,_DF]2 [G,DE]2 | [CE]4 [F,CE]2 [Ec]2 | %13
 [EB]3 [EB] [Ec]2 [Ec]2 |[M:3/4] d2- [Ed-]2 [=Ed]2 |[M:1/4] [Fd]2 | %16
[M:4/4] [Ee]3 [Ee] [E_d]2 [Ed]2 | [Ec]4 z4 | [EB]2 [EG]2 [CG]2 [DF]2 |[M:3/4] E6 |] %20
V:2
 z4 z2 [E,B,E]2 | [E,B,E]3 [E,B,E] [E,A,E]2 [E,G,]2 | [E,CE]4 [E,B,E]2 [F,A,D]2 | %3
 [G,B,E]3 [G,B,E] [F,=A,E]2 [F,CE]2 |[M:3/4] z2 F,2 A,2 |[M:1/4] [B,,G,]2 | %6
[M:4/4] [A,,A,]3 A,, B,,2 [A,B,D]2 | [G,B,E]4 [F,B,D]2 [E,B,E]2 | [B,,G,]2 C,2 D,2 D,2 | %9
[M:3/4] G,2 D,2 G,2 |[M:1/4] F,2 |[M:4/4] E,3 E, E,2 E,2 | z2 E,2 A,,2 [=A,,_G,]2 | %13
 [B,,G,]3 [B,,G,] [B,,_G,]2 [B,,G,]2 |[M:3/4] F,2 _G,2 =G,2 |[M:1/4] [=B,,A,]2 | %16
[M:4/4] [C,G,]3 [C,G,] [B,,G,]2 [B,,G,]2 | A,2 z2 [A,,F,]2 [=A,,_G,]2 | %18
 [B,,G,]2 [B,,B,]2 [B,,B,]2 [B,,A,]2 |[M:3/4] [E,G,]6 |] %20
V:3
 x8 | x8 | x8 | x8 |[M:3/4] B,2 z2 z2 |[M:1/4] x2 |[M:4/4] x8 | x8 | x8 |[M:3/4] x6 |[M:1/4] x2 | %11
[M:4/4] x8 | A,2 z2 z4 | x8 |[M:3/4] D2 z2 z2 |[M:1/4] x2 |[M:4/4] x8 | z2 E,2 [Ec]2 [E=B]2 | x8 | %19
[M:3/4] x6 |] %20
V:4
 x8 | x8 | x8 | x8 |[M:3/4] B,,6 |[M:1/4] x2 |[M:4/4] x8 | x8 | x8 |[M:3/4] x6 |[M:1/4] x2 | %11
[M:4/4] x8 | A,,4 z4 | x8 |[M:3/4] B,,6 |[M:1/4] x2 |[M:4/4] x8 | A,,4 z4 | x8 |[M:3/4] x6 |] %20

